X: 1
T: LAMSON'S -- HORNPIPE
B: Ryan's Mammoth Collection of Fiddle Tunes
R: hornpipe
M: 2/4
L: 1/16
Z: Contributed 20010917004558 by John Chambers jmchambers:rcn.net
K: F
uc2 \
| fefg afdB | cdef gabg | babg agaf | ecfd c2(d"4"e) |
| fefg afdB | cAdf efed | cABd cAGB | A2F2F2 :|
|: uC2 \
| FEFD EFGA | BAGA Bcde | gfed cd"4"ec | dBGF EFGA |
| BABd cfed | cbAf eAdc | BGEF GABc | A2F2F2 :|
